Hatter-kde/actions/16/edit-table-cell-merge.svg

<?xml version="1.0" encoding="UTF-8"?>
<svg viewBox="0 0 16 16" xmlns="http://www.w3.org/2000/svg">
 <defs id="defs3051">
  <style id="current-color-scheme" type="text/css">.ColorScheme-Text {
        color:#363636;
      }</style>
 </defs>
 <path class="ColorScheme-Text" d="m2 2v12h1 6 1 3 1v-12h-12zm1 1h3v2h1v-2h2v2h1v-2h1 1 1v2 1h-1.3438-0.65625v1h0.65625 1.3438v2h-1-1v1h1 1v3h-1-1-1v-2h-1v2h-2v-2h-1v2h-3v-3h2v-1h-2v-2h2v-1h-2v-1-2zm4 3-2 2 2 2v-4zm2 0v4l2-2-2-2z" fill="currentColor"/>
</svg>

<svg xmlns="http://www.w3.org/2000/svg" viewBox="0 0 16 16">
  <defs id="defs3051">
    <style type="text/css" id="current-color-scheme">
      .ColorScheme-Text {
        color:#363636;
      }
      </style>
  </defs>
 <path style="fill:currentColor;fill-opacity:1;stroke:none" 
     d="M 2 2 L 2 14 L 3 14 L 9 14 L 10 14 L 13 14 L 14 14 L 14 2 L 2 2 z M 3 3 L 6 3 L 6 5 L 7 5 L 7 3 L 9 3 L 9 5 L 10 5 L 10 3 L 11 3 L 12 3 L 13 3 L 13 5 L 13 6 L 11.65625 6 L 11 6 L 11 7 L 11.65625 7 L 13 7 L 13 9 L 12 9 L 11 9 L 11 10 L 12 10 L 13 10 L 13 13 L 12 13 L 11 13 L 10 13 L 10 11 L 9 11 L 9 13 L 7 13 L 7 11 L 6 11 L 6 13 L 3 13 L 3 10 L 5 10 L 5 9 L 3 9 L 3 7 L 5 7 L 5 6 L 3 6 L 3 5 L 3 3 z M 7 6 L 5 8 L 7 10 L 7 6 z M 9 6 L 9 10 L 11 8 L 9 6 z "
     class="ColorScheme-Text"
     />
</svg>
